X:1
T:Mortals learn your Lives to measure
T:Sum up all the delights
T:A Catch, a 3 Voc. by Mr. H. Purcell
%%score [ 1 2 3 ]
L:1/8
Q:1/4=70
M:3/4
K:D
V:1 treble nm="I"
V:2 treble nm="II"
V:3 treble nm="III"
V:1
 F D | A3 B A2 | F4 A F | d4 z2 | B4 B E | e3 f e2 |{d} c4 (de) | e3 d e2 | f4 f2 | f2 B2 e2 | %10
w: Sum up|all the de-|lights, Sum up|all,|all, Sum up|all the de-|lights, the _|World does pro-|duce, the|darl- ing al-|
 e2 ^A2 f2 | d3 c d2 | B4 B2 | B2 (=cB) (AG) | F4 D2 | G2 G2 E2 | A4 A G | F2 (GF) (ED) | %18
w: lure- ments, now|chief- ly in|use, you'll|find when _ com- *|par'd, there's|none can con-|tend, with the|so- lid _ En- *|
 C2 A,2 A2 | (BA) (GF) (ED) | D4 :| %21
w: joy- ments of|Bot- * tle _ and _|Friend.|
V:2
 z2 | z2 z2 A,2 | D2 D2 z2 | z2 z2 F2 | G4 z2 | z2 z2 E2 | A2 A2 B2 | c4 c2 | d2 d2 D2 | (G6 | %10
w: |for|Hon- our,|or|Wealth,|or|Beau- ty may|waste, those|Joys of- ten|fade.|
 F4) D2 | E3 E F2 | B,4 D D | G2 (AG) (FE) | A3 A d2 | B3 c d2 | c2 z d e2 | f2 B2 d2 | %18
w: _ but|rare- ly do|last, they're so|hard to _ at- *|tain, and so|ea- si- ly|lost, that the|plea- sure ne'er|
 (BA) (GF) (ED) | A,3 G, A,2 | D4 :| %21
w: an- * swer _ the _|Trou- ble and|Cost.|
V:3
 D2- | D4 z2 | z2 z2 F D | B,4 z2 | z2 z2 G E | C3 B, C2 | F2 F2 D2 | A3 A A,2 | D4 F2 | B3 d c2 | %10
w: (cost)|_|none like|Wine,|none like|Wine, and true|friend- ship are|last- ing and|sure, from|Jea- lou- sy|
 ^A2 F2 d2 | B3 c ^A2 | B4 B,2 | E2 E2 C2 | D2 D2 F2 | G3 A (BA) | A4 c2 | d3 e f2 | e2 (ef) (gf) | %19
w: free, and from|En- vy se-|cure, then|fill up the|Glas- ses un-|till they run _|o'er, a|Friend and good|Wine, are _ the _|
{e} d3 e{d} c2 | d4 :| %21
w: Charms we a-|dore.|

